src/img/header/arrow.svg

<svg width="11" height="6" viewBox="0 0 11 6" fill="none" xmlns="http://www.w3.org/2000/svg">
<g opacity="0.6">
<path d="M9.99584 0.501473L9.6631 0.166414C9.55837 0.0617757 9.41905 0.00412948 9.27014 0.00412948C9.12132 0.00412948 8.98183 0.0617757 8.87711 0.166414L5.08138 3.96231L1.28127 0.162202C1.17671 0.0575637 1.03722 0 0.888396 0C0.739573 0 0.6 0.0575637 0.495361 0.162202L0.162533 0.495196C-0.0541776 0.711741 -0.0541776 1.06447 0.162533 1.28102L4.68702 5.82178C4.79157 5.92633 4.9309 6 5.08105 6H5.08278C5.23169 6 5.37101 5.92625 5.47557 5.82178L9.99584 1.29332C10.1006 1.18877 10.158 1.04523 10.1582 0.896407C10.1582 0.747502 10.1006 0.605946 9.99584 0.501473Z" fill="white"/>
</g>
</svg>

<svg width="11" height="6" fill="none" xmlns="http://www.w3.org/2000/svg"><path d="M9.996.501L9.663.166A.552.552 0 009.27.004a.552.552 0 00-.393.162L5.081 3.962l-3.8-3.8A.551.551 0 00.888 0a.552.552 0 00-.393.162L.163.495a.556.556 0 000 .786l4.524 4.54A.568.568 0 005.081 6h.002a.568.568 0 00.393-.178l4.52-4.529a.561.561 0 000-.792z" fill="#fff" opacity=".6"/></svg>
